humanity-icon-theme/Humanity/apps/22/system-software-install.svg

<?xml version="1.0" encoding="UTF-8" standalone="no"?>
<!-- Created with Inkscape (http://www.inkscape.org/) -->
<svg
   xmlns:svg="http://www.w3.org/2000/svg"
   xmlns="http://www.w3.org/2000/svg"
   xmlns:xlink="http://www.w3.org/1999/xlink"
   version="1.0"
   width="22"
   height="22"
   id="svg3346">
  <defs
     id="defs3348">
    <linearGradient
       id="linearGradient3275">
      <stop
         id="stop3277"
         style="stop-color:#ffffff;stop-opacity:0"
         offset="0" />
      <stop
         id="stop3283"
         style="stop-color:#ffffff;stop-opacity:1"
         offset="0.245" />
      <stop
         id="stop3285"
         style="stop-color:#ffffff;stop-opacity:1"
         offset="0.77350003" />
      <stop
         id="stop3279"
         style="stop-color:#ffffff;stop-opacity:0"
         offset="1" />
    </linearGradient>
    <linearGradient
       x1="44.994774"
       y1="17.5"
       x2="3.0052247"
       y2="17.5"
       id="linearGradient3042"
       xlink:href="#linearGradient3275"
       gradientUnits="userSpaceOnUse"
       gradientTransform="matrix(0.5123229,0,0,0.4997434,-1.2958022,0.7546068)"
       spreadMethod="reflect" />
    <linearGradient
       id="linearGradient2929">
      <stop
         id="stop2931"
         style="stop-color:#ffffff;stop-opacity:1"
         offset="0" />
      <stop
         id="stop2933"
         style="stop-color:#ffffff;stop-opacity:1"
         offset="0.27127403" />
      <stop
         id="stop2935"
         style="stop-color:#ffffff;stop-opacity:0.6901961"
         offset="0.38989457" />
      <stop
         id="stop2937"
         style="stop-color:#ffffff;stop-opacity:0"
         offset="1" />
    </linearGradient>
    <linearGradient
       x1="26"
       y1="22"
       x2="26"
       y2="8"
       id="linearGradient3045"
       xlink:href="#linearGradient2929"
       gradientUnits="userSpaceOnUse"
       gradientTransform="matrix(0.5,0,0,0.5714285,-0.9999943,-0.5713112)" />
    <linearGradient
       id="linearGradient4559">
      <stop
         id="stop4561"
         style="stop-color:#ffffff;stop-opacity:0"
         offset="0" />
      <stop
         id="stop4563"
         style="stop-color:#ffffff;stop-opacity:0"
         offset="1" />
    </linearGradient>
    <linearGradient
       x1="23.451576"
       y1="30.554907"
       x2="43.00663"
       y2="45.934479"
       id="linearGradient3048"
       xlink:href="#linearGradient4559"
       gradientUnits="userSpaceOnUse"
       gradientTransform="matrix(0.6568374,0,0,0.5870422,-4.4028606,-2.3873503)" />
    <linearGradient
       id="linearGradient2909">
      <stop
         id="stop2911"
         style="stop-color:#c9af8b;stop-opacity:1"
         offset="0" />
      <stop
         id="stop2913"
         style="stop-color:#ad8757;stop-opacity:1"
         offset="0.24941477" />
      <stop
         id="stop2915"
         style="stop-color:#c2a57f;stop-opacity:1"
         offset="0.31247044" />
      <stop
         id="stop2917"
         style="stop-color:#9d7d53;stop-opacity:1"
         offset="1" />
    </linearGradient>
    <linearGradient
       x1="15.464298"
       y1="7.9756851"
       x2="15.464298"
       y2="45.04248"
       id="linearGradient3053"
       xlink:href="#linearGradient2909"
       gradientUnits="userSpaceOnUse"
       gradientTransform="matrix(0.5122637,0,0,0.4997434,-1.2943282,0.2628748)" />
    <linearGradient
       id="linearGradient2919">
      <stop
         id="stop2921"
         style="stop-color:#dac197;stop-opacity:1"
         offset="0" />
      <stop
         id="stop2923"
         style="stop-color:#c1a581;stop-opacity:1"
         offset="0.26124284" />
      <stop
         id="stop2925"
         style="stop-color:#dbc298;stop-opacity:1"
         offset="0.31579992" />
      <stop
         id="stop2927"
         style="stop-color:#a68b60;stop-opacity:1"
         offset="1" />
    </linearGradient>
    <linearGradient
       x1="24.822832"
       y1="15.377745"
       x2="24.996943"
       y2="37.27668"
       id="linearGradient3051"
       xlink:href="#linearGradient2919"
       gradientUnits="userSpaceOnUse"
       gradientTransform="matrix(0.6568374,0,0,0.7782314,-4.4038671,-7.3785805)" />
    <linearGradient
       id="linearGradient4222">
      <stop
         id="stop4224"
         style="stop-color:#ffffff;stop-opacity:1"
         offset="0" />
      <stop
         id="stop4226"
         style="stop-color:#ffffff;stop-opacity:0"
         offset="1" />
    </linearGradient>
    <linearGradient
       x1="13.471772"
       y1="25.410501"
       x2="57.726395"
       y2="25.410501"
       id="linearGradient2572"
       xlink:href="#linearGradient4222"
       gradientUnits="userSpaceOnUse"
       gradientTransform="matrix(0,0.3704967,-0.3617496,0,-4.130239,3.3844037)" />
    <linearGradient
       id="linearGradient2264">
      <stop
         id="stop2266"
         style="stop-color:#d7e866;stop-opacity:1"
         offset="0" />
      <stop
         id="stop2268"
         style="stop-color:#8cab2a;stop-opacity:1"
         offset="1" />
    </linearGradient>
    <linearGradient
       x1="28.314739"
       y1="20.709501"
       x2="0.81572169"
       y2="20.709501"
       id="linearGradient2570"
       xlink:href="#linearGradient2264"
       gradientUnits="userSpaceOnUse"
       gradientTransform="matrix(0,-0.319447,-0.313352,0,-6.152273,19.802328)" />
  </defs>
  <g
     id="layer1">
    <g
       transform="translate(0,-2)"
       id="g3392">
      <path
         d="M 3.3215391,4.5106927 L 18.43215,4.5106927 C 19.314261,4.5106927 19.711233,4.3674928 19.964614,5.0104367 L 21.502294,9.5001158 L 21.502294,21.838751 C 21.502294,22.615005 21.555024,22.496402 20.672908,22.496402 L 1.3270936,22.496402 C 0.44497936,22.496402 0.49770626,22.615005 0.49770626,21.838751 L 0.49770626,9.5001158 L 2.0353859,5.0104368 C 2.2816984,4.3804788 2.4394249,4.5106928 3.3215391,4.5106928 L 3.3215391,4.5106927 z"
         id="path2488"
         style="fill:url(#linearGradient3051);fill-opacity:1;fill-rule:nonzero;stroke:url(#linearGradient3053);stroke-width:0.99420071;stroke-linecap:round;stroke-linejoin:miter;marker:none;stroke-miterlimit:4;stroke-dasharray:none;stroke-dashoffset:0;stroke-opacity:1;visibility:visible;display:block;overflow:visible" />
      <path
         d="M 3.8027772,5.0169067 L 17.968338,5.0169067 C 18.795282,5.0169067 19.307079,5.2950307 19.65344,6.0593868 L 20.846473,9.2675988 L 20.846473,20.833938 C 20.846473,21.5639 20.427052,21.931416 19.600107,21.931416 L 2.3198115,21.931416 C 1.4928675,21.931416 1.1555507,21.527211 1.1555507,20.797246 L 1.1555507,9.2675988 L 2.3100963,5.9906018 C 2.5410054,5.3982088 2.975831,5.0169067 3.8027772,5.0169067 z"
         id="path2490"
         style="opacity:0.50549454;fill:none;stroke:url(#linearGradient3048);stroke-width:0.74211526;stroke-linecap:butt;stroke-linejoin:miter;marker:none;stroke-miterlimit:4;stroke-dasharray:none;stroke-dashoffset:0;stroke-opacity:1;visibility:visible;display:block;overflow:visible" />
      <path
         d="M 10.000005,4.0001157 C 10.666672,4.0001157 11.333338,4.0001157 12.000005,4.0001157 C 12.000005,6.6667807 12.000005,9.3334498 12.000005,12.000115 C 11.80314,12.000115 11.606275,12.000115 11.409412,12.000115 C 11.207849,12.000115 11.006286,12.000115 10.804724,12.000115 C 10.642459,12.000115 10.480194,12.000115 10.317932,12.000115 C 10.211955,12.000115 10.10598,12.000115 10.000005,12.000115 C 10.000005,9.3334498 10.000005,6.6667807 10.000005,4.0001157 L 10.000005,4.0001157 z"
         id="rect3326"
         style="opacity:0.4;fill:url(#linearGradient3045);fill-opacity:1;fill-rule:nonzero;stroke:none;stroke-width:1;marker:none;visibility:visible;display:inline;overflow:visible;enable-background:accumulate" />
      <path
         d="M 0.50000466,9.5001158 L 21.49989,9.5001158"
         id="path3273"
         style="opacity:0.4;fill:none;stroke:url(#linearGradient3042);stroke-width:0.99999994px;stroke-linecap:square;stroke-linejoin:miter;stroke-opacity:1;display:inline" />
    </g>
    <g
       transform="translate(28.656206,2.2835418)"
       id="g3128">
      <path
         d="M -7.462508,12.216458 L -13.654069,19.217311 L -19.8146,12.216458 L -17.138554,12.216458 L -17.138554,6.2156046 L -10.138554,6.2156046 L -10.138554,12.216458 L -7.462508,12.216458 z"
         id="path3288"
         style="fill:url(#linearGradient2570);fill-opacity:1;fill-rule:nonzero;stroke:#699536;stroke-width:0.99829447;stroke-linecap:round;stroke-linejoin:round;marker:none;marker-start:none;marker-mid:none;marker-end:none;stroke-miterlimit:4;stroke-dasharray:none;stroke-dashoffset:0;stroke-opacity:1;visibility:visible;display:inline;overflow:visible" />
      <path
         d="M -9.712151,13.216458 L -13.638554,17.761573 L -17.675492,13.216458 L -16.138554,13.216458 L -16.138554,7.2164576 L -11.138554,7.2164576 L -11.138554,13.216458 L -9.712151,13.216458 z"
         id="path3290"
         style="opacity:0.35400002;fill:none;fill-opacity:1;fill-rule:nonzero;stroke:url(#linearGradient2572);stroke-width:0.99829447;stroke-linecap:butt;stroke-linejoin:miter;marker:none;marker-start:none;marker-mid:none;marker-end:none;stroke-miterlimit:4;stroke-dasharray:none;stroke-dashoffset:0;stroke-opacity:1;visibility:visible;display:inline;overflow:visible" />
    </g>
  </g>
</svg>

<?xml version="1.0" encoding="UTF-8" standalone="no"?>
<!-- Created with Inkscape (http://www.inkscape.org/) -->
<svg id="svg3346" xmlns="http://www.w3.org/2000/svg" height="22" width="22" version="1.0" xmlns:xlink="http://www.w3.org/1999/xlink">
 <defs id="defs3348">
  <linearGradient id="linearGradient3042" y2="17.5" spreadMethod="reflect" gradientUnits="userSpaceOnUse" x2="3.0052" gradientTransform="matrix(.51232 0 0 .49974 -1.2958 .75461)" y1="17.5" x1="44.995">
   <stop id="stop3277" style="stop-color:#fff;stop-opacity:0" offset="0"/>
   <stop id="stop3283" style="stop-color:#fff" offset=".245"/>
   <stop id="stop3285" style="stop-color:#fff" offset=".77350"/>
   <stop id="stop3279" style="stop-color:#fff;stop-opacity:0" offset="1"/>
  </linearGradient>
  <linearGradient id="linearGradient3045" y2="8" gradientUnits="userSpaceOnUse" x2="26" gradientTransform="matrix(.5 0 0 .57143 -.99999 -.57131)" y1="22" x1="26">
   <stop id="stop2931" style="stop-color:#fff" offset="0"/>
   <stop id="stop2933" style="stop-color:#fff" offset=".27127"/>
   <stop id="stop2935" style="stop-color:#fff;stop-opacity:.69020" offset=".38989"/>
   <stop id="stop2937" style="stop-color:#fff;stop-opacity:0" offset="1"/>
  </linearGradient>
  <linearGradient id="linearGradient3048" y2="45.934" gradientUnits="userSpaceOnUse" x2="43.007" gradientTransform="matrix(.65684 0 0 .58704 -4.4029 -2.3874)" y1="30.555" x1="23.452">
   <stop id="stop4561" style="stop-color:#fff;stop-opacity:0" offset="0"/>
   <stop id="stop4563" style="stop-color:#fff;stop-opacity:0" offset="1"/>
  </linearGradient>
  <linearGradient id="linearGradient3053" y2="45.042" gradientUnits="userSpaceOnUse" x2="15.464" gradientTransform="matrix(.51226 0 0 .49974 -1.2943 .26287)" y1="7.9757" x1="15.464">
   <stop id="stop2911" style="stop-color:#c9af8b" offset="0"/>
   <stop id="stop2913" style="stop-color:#ad8757" offset=".24941"/>
   <stop id="stop2915" style="stop-color:#c2a57f" offset=".31247"/>
   <stop id="stop2917" style="stop-color:#9d7d53" offset="1"/>
  </linearGradient>
  <linearGradient id="linearGradient3051" y2="37.277" gradientUnits="userSpaceOnUse" x2="24.997" gradientTransform="matrix(.65684 0 0 .77823 -4.4039 -7.3786)" y1="15.378" x1="24.823">
   <stop id="stop2921" style="stop-color:#dac197" offset="0"/>
   <stop id="stop2923" style="stop-color:#c1a581" offset=".26124"/>
   <stop id="stop2925" style="stop-color:#dbc298" offset=".31580"/>
   <stop id="stop2927" style="stop-color:#a68b60" offset="1"/>
  </linearGradient>
  <linearGradient id="linearGradient2572" y2="25.411" gradientUnits="userSpaceOnUse" x2="57.726" gradientTransform="matrix(0 .37050 -.36175 0 -4.1302 3.3844)" y1="25.411" x1="13.472">
   <stop id="stop4224" style="stop-color:#fff" offset="0"/>
   <stop id="stop4226" style="stop-color:#fff;stop-opacity:0" offset="1"/>
  </linearGradient>
  <linearGradient id="linearGradient2570" y2="20.71" gradientUnits="userSpaceOnUse" x2=".81572" gradientTransform="matrix(0 -.31945 -.31335 0 -6.1523 19.802)" y1="20.71" x1="28.315">
   <stop id="stop2266" style="stop-color:#d7e866" offset="0"/>
   <stop id="stop2268" style="stop-color:#8cab2a" offset="1"/>
  </linearGradient>
 </defs>
 <g id="layer1">
  <g id="g3392" transform="translate(0,-2)">
   <path id="path2488" style="stroke:url(#linearGradient3053);stroke-linecap:round;stroke-width:.99420;display:block;fill:url(#linearGradient3051)" d="m3.3215 4.5107h15.11c0.882 0 1.279-0.1432 1.533 0.4997l1.537 4.4897v12.339c0 0.776 0.053 0.657-0.829 0.657h-19.346c-0.88202 0-0.82929 0.119-0.82929-0.657v-12.339l1.5377-4.4896c0.2463-0.6299 0.404-0.4997 1.2861-0.4997z"/>
   <path id="path2490" style="opacity:.50549;stroke:url(#linearGradient3048);stroke-width:.74212;display:block;fill:none" d="m3.8028 5.0169h14.165c0.827 0 1.339 0.2781 1.685 1.0425l1.193 3.2082v11.566c0 0.73-0.419 1.097-1.246 1.097h-17.28c-0.8271 0-1.1644-0.404-1.1644-1.134v-11.529l1.1545-3.2774c0.2309-0.5924 0.6657-0.9737 1.4927-0.9737z"/>
   <path id="rect3326" style="opacity:.4;fill:url(#linearGradient3045)" d="m10 4.0001h2v7.9999h-0.591-0.604-0.487-0.318v-7.9999z"/>
   <path id="path3273" style="opacity:.4;stroke:url(#linearGradient3042);stroke-linecap:square;stroke-width:1px;fill:none" d="m0.5 9.5001h21"/>
  </g>
  <g id="g3128" transform="translate(28.656 2.2835)">
   <path id="path3288" style="stroke-linejoin:round;stroke:#699536;stroke-linecap:round;stroke-width:.99829;fill:url(#linearGradient2570)" d="m-7.4625 12.216l-6.1915 7.001-6.161-7.001h2.676v-6.0004h7v6.0004h2.6765z"/>
   <path id="path3290" style="opacity:0.354;stroke:url(#linearGradient2572);stroke-width:.99829;fill:none" d="m-9.7122 13.216l-3.9268 4.546-4.036-4.546h1.536v-5.9995h5v5.9995h1.4268z"/>
  </g>
 </g>
</svg>
